.icons/oomox-ad/22x22/panel/thunderbird-attention-panel.svg

<svg xmlns="http://www.w3.org/2000/svg" width="22" height="22" version="1.1">
 <defs>
  <style id="current-color-scheme" type="text/css">
   .ColorScheme-Text { color:#ffffff; } .ColorScheme-Highlight { color:#4285f4; }
  </style>
 </defs>
 <path style="opacity:0.3;fill:currentColor" class="ColorScheme-Text" d="m 12.818359,8.3105469 c -0.567804,0.2317616 -1.10149,0.484375 -1.824218,0.484375 -0.02606,3.7e-4 -0.05212,-2.831e-4 -0.07813,-0.00195 C 9.6242018,8.6917296 9.0214142,8.7719806 8.078125,9.6914062 8.0023202,9.7651236 7.9152971,9.8265868 7.8203125,9.8730469 7.7605666,9.9022659 7.7040524,9.9242058 7.6464844,9.9492188 7.5809236,9.9899037 7.5106295,10.022297 7.4375,10.046875 L 8.9941406,11.794922 13.908203,10.25 c 0.04003,-0.147765 0.07825,-0.316126 0.08399,-0.3007812 -0.2267,-0.9223661 -0.496956,-1.3025776 -1.173829,-1.6386719 z M 7.1445312,10.216797 c -0.2087725,0.439056 -0.6997417,0.675018 -1.1738281,0.537109 -4e-5,0.262589 -0.072515,0.548361 -0.00977,0.783203 0.1026887,0.390092 -0.039027,0.803687 -0.359375,1.048829 0.1915064,0.669017 0.4381609,1.310166 0.7617187,1.921874 l 6.2050778,1.902344 c 0.03813,-0.04568 0.07765,-0.08161 0.115235,-0.128906 0.389406,-0.490041 0.754454,-1.068637 1.054687,-1.724609 -0.0088,0.0042 -0.0247,0.01162 -0.0332,0.01563 -0.09192,0.04338 -0.167699,0.07808 -0.224609,0.103515 -0.02846,0.01272 -0.05156,0.02165 -0.07422,0.03125 -0.01133,0.0048 -0.02051,0.01028 -0.03906,0.01758 -0.0093,0.0037 -0.01904,0.0067 -0.04492,0.01563 -0.01294,0.0045 -0.06611,0.01945 -0.06641,0.01953 -1.5e-4,4e-5 -0.08975,0.02147 -0.08984,0.02148 -9.2e-5,10e-5 -0.257733,0.0053 -0.289063,0.0059 -0.774371,-0.09183 -1.15041,-0.995198 -0.669922,-1.609375 0.0027,-0.0034 0.01097,-0.01603 0.01367,-0.01953 0.243167,-0.313175 0.751662,-1.042657 1.158203,-1.765625 0.112572,-0.200191 0.181438,-0.37224 0.271485,-0.560547 l -4.6562504,1.462891 z"/>
 <path style="fill:currentColor" class="ColorScheme-Text" d="M 9.3966567,2.7953081 C 8.1918972,2.8274628 7.5371048,3.9220792 7.0294691,4.918355 6.8442637,5.0117956 6.6561043,5.0941174 6.4728285,5.1956987 5.4781491,5.8644366 4.6625592,6.791828 4.0333754,7.8050737 3.4799233,8.7819791 3.144369,9.8672951 3.0197035,10.980855 c -0.074085,1.128995 0.055332,2.279708 0.4804688,3.335937 0.3295182,0.928332 0.9097504,1.947786 1.6523437,2.583262 0.9858749,0.657857 1.7698739,1.133727 2.8457031,1.087891 -2.2398416,-1.791482 -3.4216127,-3.939763 -3.7949218,-6.468027 -0.011789,-0.189405 -0.035038,-0.394238 0.033203,-0.34375 0.2552755,0.40459 0.3146666,0.389425 0.7578125,0.61914 C 4.6122777,10.365526 5.1224474,8.7748941 5.746266,7.6136675 5.8243135,7.5243171 5.9090672,7.4385933 5.9923598,7.3519487 l 0.039063,0.00586 c 0.014022,0.22327 0.040433,0.448037 0.066406,0.6640625 -0.00481,0.1040819 0.061596,0.2818488 0.082031,0.3964844 -0.015374,0.040226 -0.098765,0.2808522 -0.1308594,0.5820312 -0.01935,0.1192851 -0.020024,0.2365061 -0.00195,0.3515625 0.00325,0.022682 0.00503,0.044102 0.00977,0.066406 0.00971,0.040484 0.020652,0.081362 0.037109,0.1210937 0.034751,0.093837 0.081037,0.1825393 0.1562429,0.2558591 0.027823,-0.1254256 0.084584,-0.2266112 0.1621094,-0.3105469 0.019359,-0.020959 0.048626,-0.033756 0.070312,-0.052734 C 6.5528477,9.3725002 6.626192,9.3150696 6.70525,9.2718709 6.720812,9.2633709 6.721072,9.2660709 6.7365,9.2581989 6.9328569,9.1579735 7.1260868,9.0960895 7.127125,9.0960895 L 7.14275,9.0804645 C 7.2239921,9.0473818 7.3059376,9.0117209 7.3810317,8.9749956 8.5082165,7.8763264 9.5741866,7.6840132 10.994313,7.7953081 c 0.781587,0 1.226582,-0.2030038 2,-0.5507812 1.186546,0.4960506 1.695811,1.2706935 2,2.5507812 0.114559,0.9621249 -1.431114,3.2694949 -2,3.9980469 -6.8e-5,1.1e-5 -0.0039,0.002 -0.0039,0.002 1.2e-5,0 0.0039,-1e-5 0.0039,0 0.01173,0.0016 1.717869,-0.760302 2.398438,-1.40625 -0.485567,3.754421 -3.186124,6.081862 -4.398438,6.606168 0.936965,0.06306 2.220246,-0.52096 3.103516,-1.060547 -0.403265,0.43212 -0.834566,0.89984 -1.103516,1.060547 1.054554,-0.295286 2.053274,-0.403114 2.71875,-0.888672 -2.49e-4,0 0.539372,-0.493939 1.103516,-1.137418 0.07505,-0.08561 0.203986,-0.203291 0.28125,-0.300781 0.04803,-0.06061 0.09368,-0.122701 0.140625,-0.183594 0.0083,-0.01001 0.01744,-0.02109 0.02539,-0.03125 1.187377,-1.452539 1.765529,-3.257976 1.722657,-4.894531 C 18.994834,9.5751097 18.188693,7.853754 16.83611,6.4300737 15.857937,5.4004846 14.746727,4.7690031 13.746266,4.4281206 12.710946,4.1308204 11.492782,3.9799983 10.457204,4.0374956 c -0.103696,0.00127 -0.391212,0.00968 -0.7832036,0.042969 -0.045841,-0.086358 0.011196,-0.4068056 0.1230469,-0.4863281 -0.2451616,0.02295 -0.4710267,0.3418588 -0.6796875,0.5625 -0.035119,0.00685 -0.071169,0.013798 -0.1035157,0.021484 C 9.201774,3.852986 9.3933855,3.4872279 9.6173598,3.1956987 8.9234996,3.3252186 8.6206999,3.8707512 8.2814223,4.3734331 8.1835045,4.4056676 8.0884544,4.4448005 7.9923598,4.480855 8.2440282,3.7546674 8.7172809,3.357217 9.3966567,2.7953081 Z M 7.5978285,6.9955078 c 0.1941057,-0.00375 0.3693938,0.029297 0.3710938,0.029297 0.0033,0 0.087553,0.3400574 -0.072266,0.6308593 C 7.7368381,7.9475756 7.3646677,8.0643756 7.1583754,7.9544922 6.9475508,7.8446096 6.9482994,7.4768729 7.1115004,7.1849609 7.1902762,7.039005 7.4037229,6.9992537 7.5978285,6.9955078 Z"/>
 <path style="fill:none" d="M 9.3966567,2.7953081 C 8.1918972,2.8274628 7.5371048,3.9220792 7.0294691,4.918355 6.8442637,5.0117956 6.6561043,5.0941174 6.4728285,5.1956987 5.4781491,5.8644366 4.6625592,6.791828 4.0333754,7.8050737 3.4799233,8.7819791 3.144369,9.8672951 3.0197035,10.980855 c -0.074085,1.128995 0.055332,2.279708 0.4804688,3.335937 0.3295182,0.928332 0.9097504,1.747336 1.6523437,2.382813 0.9858749,0.657857 1.7698739,1.133727 2.8457031,1.087891 -0.3999112,-0.231221 -1.4854217,-0.879999 -1.7988281,-2.59961 0.3327191,0.651643 1.3440906,1.409056 1.7949219,1.607422 0,0 -0.3720883,-0.610712 -0.3671875,-1.048828 0.00346,-0.309635 0.1298692,-0.646218 0.1054687,-0.951172 L 4.699391,13.99648 C 4.446309,13.195431 4.2955628,12.366906 4.2032973,11.519918 c -0.011789,-0.189405 -0.035038,-0.394238 0.033203,-0.34375 0.2552755,0.40459 0.3146666,0.389425 0.7578125,0.61914 C 4.6122777,10.365526 5.1224474,8.7748941 5.746266,7.6136675 5.8243135,7.5243171 5.9090672,7.4385933 5.9923598,7.3519487 l 0.039063,0.00586 c 0.014022,0.22327 0.040433,0.448037 0.066406,0.6640625 -0.00481,0.1040819 0.061596,0.2818488 0.082031,0.3964844 -0.015374,0.040226 -0.098765,0.2808522 -0.1308594,0.5820312 -0.01935,0.1192851 -0.020024,0.2365061 -0.00195,0.3515625 0.00325,0.022682 0.00503,0.044102 0.00977,0.066406 0.00971,0.040484 0.020652,0.081362 0.037109,0.1210937 0.034751,0.093837 0.081037,0.1825393 0.1562429,0.2558591 0.027823,-0.1254256 0.084584,-0.2266112 0.1621094,-0.3105469 0.019359,-0.020959 0.048626,-0.033756 0.070312,-0.052734 C 6.5528477,9.3725002 6.626192,9.3150696 6.70525,9.2718709 6.720812,9.2633709 6.721072,9.2660709 6.7365,9.2581989 6.9328569,9.1579735 7.1260868,9.0960895 7.127125,9.0960895 L 7.14275,9.0804645 C 7.2239921,9.0473818 7.3059376,9.0117209 7.3810317,8.9749956 8.5082165,7.8763264 9.5741866,7.6840132 10.994313,7.7953081 c 0.781587,0 1.226582,-0.2030038 2,-0.5507812 1.186546,0.4960506 1.695811,1.2706935 2,2.5507812 0.114559,0.9621249 -1.431114,3.2694949 -2,3.9980469 -6.8e-5,1.1e-5 -0.0039,0.002 -0.0039,0.002 1.2e-5,0 0.0039,-10e-6 0.0039,0 0.01173,0.0016 1.717869,-0.760302 2.398438,-1.40625 -0.485567,3.754421 -3.186124,5.881944 -4.398438,6.40625 0.936965,0.06306 2.220246,-0.52096 3.103516,-1.060547 -0.403265,0.43212 -0.834566,0.89984 -1.103516,1.060547 1.054554,-0.295287 2.053274,-0.403114 2.71875,-0.888672 -2.49e-4,0 0.539372,-0.294021 1.103516,-0.9375 0.07505,-0.08561 0.203986,-0.203291 0.28125,-0.300781 0.04803,-0.06061 0.09368,-0.122701 0.140625,-0.183594 0.0083,-0.01001 0.01744,-0.02109 0.02539,-0.03125 1.187377,-1.452539 1.765529,-3.257976 1.722657,-4.894531 C 18.994834,9.5751097 18.188693,7.853754 16.83611,6.4300737 15.857937,5.4004846 14.746727,4.7690031 13.746266,4.4281206 12.710946,4.1308204 11.492782,3.9799983 10.457204,4.0374956 c -0.103696,0.00127 -0.391212,0.00968 -0.7832036,0.042969 -0.045841,-0.086358 0.011196,-0.4068056 0.1230469,-0.4863281 -0.2451616,0.02295 -0.4710267,0.3418588 -0.6796875,0.5625 -0.035119,0.00685 -0.071169,0.013798 -0.1035157,0.021484 C 9.201774,3.852986 9.3933855,3.4872279 9.6173598,3.1956987 8.9234996,3.3252186 8.6206999,3.8707512 8.2814223,4.3734331 8.1835045,4.4056676 8.0884544,4.4448005 7.9923598,4.480855 8.2440282,3.7546674 8.7172809,3.357217 9.3966567,2.7953081 Z m -1.7988282,4 c 0.1941057,-0.00375 0.3693938,0.029297 0.3710938,0.029297 0.0033,0 0.087553,0.3400574 -0.072266,0.6308593 C 7.7368381,7.7473759 7.3646677,7.8641759 7.1583754,7.7542925 6.9475508,7.6444099 6.9482994,7.2766732 7.1115004,6.9847612 7.1902762,6.8388053 7.4037229,6.799054 7.5978285,6.7953081 Z"/>
 <circle style="fill:currentColor" class="ColorScheme-Highlight" cx="19" cy="4" r="2"/>
</svg>

<svg xmlns="http://www.w3.org/2000/svg" width="22" height="22" version="1.1">
 <defs>
  <style id="current-color-scheme" type="text/css">
   .ColorScheme-Text { color:#7ba5b5; } .ColorScheme-Highlight { color:#4285f4; } .ColorScheme-NeutralText { color:#ff9800; } .ColorScheme-PositiveText { color:#4caf50; } .ColorScheme-NegativeText { color:#f44336; }
  </style>
 </defs>
 <circle style="fill:currentColor" class="ColorScheme-Highlight" cx="19" cy="4" r="2"/>
 <path style="fill:currentColor" class="ColorScheme-Text" d="m9.3967 2.795c-1.2048 0.0322-1.8596 1.1268-2.3672 2.1231-0.1852 0.0934-0.3734 0.1757-0.5567 0.2773-0.9947 0.6687-1.8102 1.5961-2.4394 2.6094-0.5535 0.9769-0.889 2.0622-1.0137 3.1762-0.0741 1.129 0.0553 2.28 0.4805 3.336 0.3295 0.928 0.9097 1.948 1.6523 2.583 0.9859 0.658 1.7699 1.134 2.8457 1.088-2.2398-1.792-3.4216-3.94-3.7949-6.468-0.0118-0.189-0.035-0.394 0.0332-0.344 0.2553 0.405 0.3147 0.39 0.7578 0.619-0.382-1.429 0.1281-3.0204 0.752-4.1816 0.078-0.0894 0.1628-0.1751 0.2461-0.2618l0.039 0.0059c0.014 0.2233 0.0405 0.448 0.0664 0.6641-0.0048 0.1041 0.0616 0.2818 0.0821 0.3965-0.0154 0.0402-0.0988 0.2808-0.1309 0.582-0.0193 0.1193-0.02 0.2365-0.0019 0.3515 0.0032 0.0227 5e-3 0.0442 0.0097 0.0665 0.0097 0.0404 0.0207 0.0813 0.0371 0.121 0.0348 0.0939 0.0811 0.1826 0.1563 0.2559 0.0278-0.1254 0.0846-0.2266 0.1621-0.3105 0.0193-0.021 0.0486-0.0338 0.0703-0.0528 0.0702-0.0595 0.1436-0.1169 0.2227-0.1601 0.0155-0.0085 0.0158-0.0058 0.0312-0.0137 0.1964-0.1002 0.3896-0.1621 0.3906-0.1621l0.0157-0.0156c0.0812-0.0331 0.1631-0.0688 0.2382-0.1055 1.1272-1.0987 2.1932-1.291 3.613-1.1797 0.782 0 1.227-0.203 2-0.5508 1.187 0.4961 1.696 1.2707 2 2.5508 0.115 0.962-1.431 3.27-2 3.998l-4e-3 2e-3h4e-3c0.012 2e-3 1.718-0.76 2.399-1.406-0.486 3.755-3.186 6.082-4.399 6.606 0.937 0.063 2.221-0.521 3.104-1.06-0.403 0.432-0.835 0.9-1.104 1.06 1.055-0.295 2.054-0.403 2.719-0.888 0 0 0.539-0.494 1.104-1.138 0.075-0.085 0.204-0.203 0.281-0.301 0.048-0.06 0.094-0.122 0.14-0.183 9e-3 -0.01 0.018-0.021 0.026-0.031 1.187-1.453 1.765-3.258 1.723-4.895 8e-3 -1.9842-0.798-3.7055-2.151-5.1292-0.978-1.0296-2.089-1.6611-3.09-2.002-1.035-0.2973-2.253-0.4481-3.289-0.3906-0.103 0.0013-0.391 0.0097-0.783 0.043-0.0458-0.0864 0.0112-0.4068 0.123-0.4864-0.2451 0.023-0.471 0.3419-0.6796 0.5625-0.0352 0.0069-0.0712 0.0138-0.1036 0.0215 0.188-0.3251 0.3796-0.6909 0.6036-0.9824-0.6939 0.1295-0.9967 0.6751-1.336 1.1777-0.0979 0.0323-0.1929 0.0714-0.289 0.1075 0.2516-0.7262 0.7249-1.1237 1.4043-1.6856zm-1.7989 4.2002c0.1941-0.0037 0.3694 0.0293 0.3711 0.0293 0.0033 0 0.0876 0.3401-0.0722 0.6309-0.1599 0.2919-0.532 0.4087-0.7383 0.2988-0.2108-0.1099-0.2101-0.4776-0.0469-0.7695 0.0788-0.146 0.2922-0.1857 0.4863-0.1895z"/>
 <path style="fill:currentColor;opacity:.3" class="ColorScheme-Text" d="m12.818 8.311c-0.567 0.2318-1.101 0.4844-1.824 0.4844-0.026 4e-4 -0.052-3e-4 -0.078-0.0019-1.2918-0.1013-1.8946-0.021-2.8379 0.8984-0.0758 0.0737-0.1628 0.1352-0.2578 0.1816-0.0597 0.0293-0.1162 0.0512-0.1738 0.0762-0.0656 0.0407-0.1359 0.0733-0.209 0.0983l1.5566 1.748 4.9139-1.545c0.04-0.148 0.078-0.3166 0.084-0.3013-0.227-0.9223-0.497-1.3026-1.174-1.6387zm-5.6735 1.907c-0.2087 0.439-0.6997 0.675-1.1738 0.537 0 0.262-0.0725 0.548-0.0098 0.783 0.1027 0.39-0.039 0.804-0.3593 1.049 0.1915 0.669 0.4381 1.31 0.7617 1.922l6.2047 1.902c0.038-0.046 0.078-0.081 0.116-0.129 0.389-0.49 0.754-1.068 1.054-1.724-9e-3 4e-3 -0.024 0.011-0.033 0.015-0.092 0.044-0.168 0.078-0.225 0.104-0.028 0.013-0.051 0.021-0.074 0.031-0.011 5e-3 -0.02 0.01-0.039 0.018-9e-3 3e-3 -0.019 6e-3 -0.045 0.015-0.013 5e-3 -0.066 0.02-0.066 0.02l-0.09 0.021s-0.258 6e-3 -0.289 6e-3c-0.774-0.092-1.15-0.995-0.67-1.609 3e-3 -4e-3 0.011-0.016 0.014-0.02 0.243-0.313 0.751-1.042 1.158-1.765 0.112-0.201 0.181-0.373 0.271-0.561l-4.6559 1.463z"/>
</svg>
